images/icon-clock.svg

<svg width="30" height="31" viewBox="0 0 30 31" fill="none" xmlns="http://www.w3.org/2000/svg">
<g clip-path="url(#clip0_323_515)">
<path fill-rule="evenodd" clip-rule="evenodd" d="M14.3876 1.70909C10.8604 1.93469 7.48578 3.46909 4.99031 5.98194C2.77014 8.21758 1.35053 11.0611 0.86621 14.2423C0.710537 15.2649 0.711386 17.2531 0.868038 18.3203C1.66932 23.7802 5.41351 28.323 10.5734 30.0955C11.9634 30.573 13.7023 30.8936 14.902 30.8936C15.2865 30.8936 15.3677 30.8721 15.5064 30.7333C15.7144 30.5253 15.7184 30.221 15.5157 30.0184C15.3849 29.8876 15.2738 29.8613 14.6832 29.8216C13.1058 29.7157 11.6775 29.4076 10.3775 28.8929C7.18658 27.6294 4.63658 25.2793 3.16017 22.2415C2.27615 20.4225 1.85863 18.7532 1.78014 16.7237C1.61428 12.4347 3.59676 8.17638 6.97207 5.57147C11.1289 2.36351 16.5927 1.79731 21.3151 4.08506C22.681 4.7468 23.9295 5.66236 25.0719 6.84016C26.1377 7.93876 26.815 8.89434 27.4871 10.2473C28.4374 12.1605 28.874 14.0536 28.8753 16.2666C28.8766 18.4596 28.4665 20.2503 27.5143 22.2088C27.1409 22.977 26.2106 24.4942 26.1129 24.4943C26.094 24.4943 26.1157 24.0347 26.1611 23.4731C26.227 22.6569 26.2272 22.4177 26.1622 22.282C25.9505 21.8405 25.335 21.9058 25.2069 22.3833C25.1359 22.648 24.9372 25.0707 24.9385 25.6566C24.9397 26.2452 25.2318 26.5847 25.7358 26.5833C25.8544 26.583 26.6859 26.3931 27.5838 26.1613C28.9758 25.8021 29.2379 25.7151 29.3632 25.5706C29.4441 25.4775 29.5101 25.3333 29.5101 25.2504C29.5101 25.0552 29.2928 24.7806 29.0997 24.7322C29.0148 24.7109 28.5225 24.8068 27.9757 24.9514C27.4407 25.0928 26.9927 25.1983 26.9803 25.1859C26.9678 25.1735 27.121 24.9357 27.3207 24.6574C28.6081 22.863 29.5035 20.5491 29.8473 18.1276C29.971 17.257 29.953 15.1591 29.8137 14.2166C29.4999 12.0937 28.6768 9.95075 27.5025 8.19982C24.5667 3.8223 19.6206 1.37443 14.3876 1.70909ZM13.9446 6.11312C11.0788 6.57988 8.62212 8.14412 7.03842 10.5104C4.75073 13.9286 4.75177 18.2772 7.04109 21.7008C8.50458 23.8894 10.8105 25.4343 13.4724 26.0096C14.4322 26.217 16.3831 26.2161 17.3481 26.0077C20.2454 25.3821 22.6386 23.6701 24.1196 21.1639C25.5019 18.8247 25.8594 15.9754 25.1033 13.3238C24.0882 9.76413 21.0901 6.99642 17.3971 6.21003C16.5345 6.02634 14.7798 5.9771 13.9446 6.11312ZM13.8332 7.22608C12.9851 7.37966 11.4248 7.92289 11.423 8.06517C11.4226 8.09756 11.5545 8.35327 11.7161 8.63347C11.8777 8.91367 12.01 9.21908 12.01 9.31219C12.01 9.55622 11.7386 9.802 11.4693 9.802C11.2039 9.802 11.0763 9.67499 10.7308 9.06739C10.593 8.82493 10.4518 8.62662 10.4171 8.62662C10.29 8.62662 9.40042 9.36051 8.92732 9.85568C8.23587 10.5794 7.85557 11.1067 7.96997 11.1829C8.01914 11.2156 8.24279 11.3467 8.4669 11.4743C9.13256 11.8532 9.29881 12.1926 8.97649 12.5149C8.73476 12.7567 8.46997 12.7239 7.89612 12.3813C7.62676 12.2205 7.38705 12.0886 7.36347 12.0882C7.2968 12.0871 6.9406 12.9819 6.76455 13.593C6.62318 14.0837 6.53842 14.5235 6.43597 15.2976L6.40436 15.5367L7.09072 15.5588C7.75586 15.5803 7.78211 15.5869 7.94059 15.7712C8.06831 15.9198 8.09528 16.0055 8.06381 16.1628C7.98636 16.5501 7.83859 16.6233 7.08328 16.6479L6.40436 16.67L6.43597 16.9091C6.53842 17.6833 6.62318 18.123 6.76455 18.6137C6.9406 19.2249 7.2968 20.1197 7.36347 20.1185C7.38705 20.1182 7.62676 19.9863 7.89612 19.8254C8.46997 19.4829 8.73476 19.4501 8.97649 19.6919C9.29881 20.0141 9.13256 20.3536 8.4669 20.7324C8.24279 20.86 8.01803 20.9919 7.96749 21.0254C7.77819 21.1512 9.09423 22.6344 9.99163 23.3067C10.1924 23.457 10.3845 23.5801 10.4185 23.5801C10.4524 23.5801 10.593 23.3817 10.7308 23.1394C11.0763 22.5317 11.2039 22.4047 11.4693 22.4047C11.7405 22.4047 12.01 22.6505 12.01 22.8979C12.01 22.993 11.8663 23.3147 11.6908 23.6129L11.3716 24.1552L11.8051 24.3521C12.6191 24.7218 14.0451 25.0808 14.7036 25.0817L14.8831 25.082V24.4261C14.8831 23.8166 14.8945 23.7587 15.0434 23.6098C15.2555 23.3977 15.5556 23.3977 15.7676 23.6098C15.9168 23.759 15.9279 23.816 15.9279 24.4355V25.1009L16.336 25.0627C17.1835 24.9836 18.2722 24.6914 19.1402 24.3102L19.4467 24.1756L19.124 23.6004C18.9466 23.2839 18.8013 22.9576 18.8012 22.8752C18.801 22.6458 19.0808 22.4047 19.3474 22.4047C19.6141 22.4047 19.7714 22.5667 20.1336 23.2143L20.3728 23.642L20.7133 23.3992C21.2109 23.0444 22.1444 22.1283 22.5566 21.5902C22.7537 21.3329 22.9149 21.1063 22.9149 21.0867C22.9149 21.0672 22.6805 20.9149 22.394 20.7484C22.1076 20.582 21.8258 20.3735 21.7679 20.2852C21.6356 20.0832 21.6945 19.7664 21.8899 19.6296C22.1233 19.4661 22.3848 19.5157 22.9218 19.8254C23.202 19.987 23.4444 20.1193 23.4604 20.1193C23.5154 20.1193 23.9501 19.019 24.085 18.5382C24.1916 18.1585 24.4144 16.9311 24.4164 16.7133C24.4166 16.6897 24.109 16.6603 23.7328 16.648C23.1292 16.6284 23.0317 16.6087 22.9035 16.4803C22.808 16.3847 22.7582 16.2555 22.7582 16.1034C22.7582 15.9512 22.808 15.8221 22.9035 15.7265C23.0319 15.598 23.1292 15.5784 23.7359 15.5586L24.423 15.5362L24.3827 15.2321C24.2827 14.477 24.1338 13.7928 23.9491 13.2407C23.7835 12.7453 23.5506 12.1929 23.4677 12.0987C23.4574 12.0869 23.2157 12.2118 22.9306 12.3762C22.6256 12.5521 22.3306 12.6752 22.2138 12.6752C21.7859 12.6752 21.5435 12.206 21.8018 11.8777C21.8775 11.7814 22.159 11.5815 22.4272 11.4334C22.6954 11.2853 22.9149 11.1478 22.9149 11.1277C22.9149 11.1077 22.7695 10.8951 22.5918 10.6553C22.2201 10.154 21.2127 9.16292 20.7133 8.8073L20.3728 8.56478L20.1336 8.99242C19.7714 9.64 19.6141 9.802 19.3474 9.802C19.0808 9.802 18.801 9.56098 18.8012 9.33152C18.8013 9.24911 18.9458 8.92425 19.1222 8.60964C19.4856 7.96187 19.5149 8.04049 18.8011 7.74815C18.2033 7.50334 17.0172 7.20545 16.4271 7.15197L15.9279 7.10671V7.77172C15.9279 8.39063 15.9168 8.44776 15.7676 8.59691C15.5556 8.809 15.2555 8.809 15.0434 8.59691C14.8945 8.44802 14.8831 8.3901 14.8831 7.78067V7.12474L14.6056 7.13061C14.4529 7.13381 14.1054 7.17678 13.8332 7.22608Z" fill="#0E384C"/>
<path fill-rule="evenodd" clip-rule="evenodd" d="M14.3876 1.70909C10.8604 1.93469 7.48578 3.46909 4.99031 5.98194C2.77014 8.21758 1.35053 11.0611 0.86621 14.2423C0.710537 15.2649 0.711386 17.2531 0.868038 18.3203C1.66932 23.7802 5.41351 28.323 10.5734 30.0955C11.9634 30.573 13.7023 30.8936 14.902 30.8936C15.2865 30.8936 15.3677 30.8721 15.5064 30.7333C15.7144 30.5253 15.7184 30.221 15.5157 30.0184C15.3849 29.8876 15.2738 29.8613 14.6832 29.8216C13.1058 29.7157 11.6775 29.4076 10.3775 28.8929C7.18658 27.6294 4.63658 25.2793 3.16017 22.2415C2.27615 20.4225 1.85863 18.7532 1.78014 16.7237C1.61428 12.4347 3.59676 8.17638 6.97207 5.57147C11.1289 2.36351 16.5927 1.79731 21.3151 4.08506C22.681 4.7468 23.9295 5.66236 25.0719 6.84016C26.1377 7.93876 26.815 8.89434 27.4871 10.2473C28.4374 12.1605 28.874 14.0536 28.8753 16.2666C28.8766 18.4596 28.4665 20.2503 27.5143 22.2088C27.1409 22.977 26.2106 24.4942 26.1129 24.4943C26.094 24.4943 26.1157 24.0347 26.1611 23.4731C26.227 22.6569 26.2272 22.4177 26.1622 22.282C25.9505 21.8405 25.335 21.9058 25.2069 22.3833C25.1359 22.648 24.9372 25.0707 24.9385 25.6566C24.9397 26.2452 25.2318 26.5847 25.7358 26.5833C25.8544 26.583 26.6859 26.3931 27.5838 26.1613C28.9758 25.8021 29.2379 25.7151 29.3632 25.5706C29.4441 25.4775 29.5101 25.3333 29.5101 25.2504C29.5101 25.0552 29.2928 24.7806 29.0997 24.7322C29.0148 24.7109 28.5225 24.8068 27.9757 24.9514C27.4407 25.0928 26.9927 25.1983 26.9803 25.1859C26.9678 25.1735 27.121 24.9357 27.3207 24.6574C28.6081 22.863 29.5035 20.5491 29.8473 18.1276C29.971 17.257 29.953 15.1591 29.8137 14.2166C29.4999 12.0937 28.6768 9.95075 27.5025 8.19982C24.5667 3.8223 19.6206 1.37443 14.3876 1.70909Z" fill="#1E84B5"/>
<path d="M14.5898 10.357L14.7337 10.2132C14.8243 10.1225 14.9445 10.0693 15.0586 10.0693C15.1727 10.0693 15.2929 10.1225 15.3835 10.2132L15.5273 10.357V12.97C15.5273 15.2751 15.5387 15.605 15.6233 15.7705C15.6761 15.8736 16.1375 16.6721 16.6487 17.5448C17.3002 18.6572 17.5781 19.1852 17.5781 19.3108C17.5781 19.5414 17.4216 19.7276 17.1901 19.7723C17.0415 19.8009 16.9739 19.7762 16.8308 19.6406C16.6458 19.4654 14.7974 16.3415 14.6692 15.9873C14.6135 15.8333 14.5944 15.1067 14.5924 13.0696L14.5898 10.357Z" fill="#0E384C"/>
</g>
<defs>
<clipPath id="clip0_323_515">
<rect width="30" height="30" fill="white" transform="translate(0 0.928711)"/>
</clipPath>
</defs>
</svg>

<svg xmlns="http://www.w3.org/2000/svg" width="30" height="31" fill="none" viewBox="0 0 30 31"><g clip-path="url(#a)"><path fill="#0e384c" fill-rule="evenodd" d="M14.388 1.71A14.63 14.63 0 0 0 4.99 5.981c-2.22 2.236-3.64 5.08-4.124 8.26-.155 1.023-.155 3.011.002 4.078.801 5.46 4.546 10.003 9.705 11.776 1.39.477 3.13.798 4.329.798.385 0 .466-.022.604-.16a.49.49 0 0 0 .01-.716c-.131-.13-.242-.157-.833-.196-1.577-.106-3.005-.414-4.305-.93-3.191-1.263-5.741-3.613-7.218-6.65-.884-1.82-1.301-3.489-1.38-5.518-.166-4.29 1.817-8.548 5.192-11.153 4.157-3.207 9.62-3.774 14.343-1.486 1.366.662 2.614 1.577 3.757 2.755 1.066 1.099 1.743 2.054 2.415 3.407.95 1.914 1.387 3.807 1.388 6.02.002 2.193-.409 3.983-1.36 5.942-.374.768-1.304 2.285-1.402 2.285-.019 0 .003-.46.048-1.02.066-.817.066-1.056.001-1.192-.211-.442-.827-.376-.955.101-.071.265-.27 2.688-.268 3.274 0 .588.293.928.797.926.118 0 .95-.19 1.848-.422 1.392-.359 1.654-.446 1.78-.59.08-.094.146-.238.146-.32 0-.196-.217-.47-.41-.519-.085-.021-.578.075-1.124.22-.535.14-.983.246-.996.234-.012-.012.141-.25.34-.529 1.288-1.794 2.183-4.108 2.527-6.53.124-.87.106-2.968-.033-3.91-.314-2.123-1.137-4.266-2.311-6.017-2.936-4.378-7.882-6.826-13.115-6.49m-.443 4.403c-2.866.467-5.323 2.031-6.907 4.397-2.287 3.419-2.286 7.767.003 11.19 1.464 2.19 3.77 3.734 6.431 4.31.96.207 2.911.206 3.876-.002 2.897-.626 5.29-2.338 6.772-4.844 1.382-2.34 1.74-5.189.983-7.84-1.015-3.56-4.013-6.328-7.706-7.114-.862-.184-2.617-.233-3.452-.097m-.112 1.113c-.848.154-2.408.697-2.41.84 0 .032.132.287.293.567.162.28.294.586.294.68 0 .243-.271.489-.54.489-.266 0-.394-.127-.74-.735-.137-.242-.278-.44-.313-.44-.127 0-1.017.734-1.49 1.229-.691.723-1.071 1.25-.957 1.327.05.033.273.164.497.291.666.38.832.719.51 1.04-.242.243-.507.21-1.08-.133-.27-.16-.51-.292-.534-.293-.066 0-.422.894-.598 1.505-.142.49-.227.93-.329 1.705l-.032.239.687.022c.665.021.691.028.85.212.127.149.154.235.123.392-.078.387-.225.46-.98.485l-.68.022.032.24c.102.773.187 1.213.329 1.704.176.61.532 1.506.598 1.505.024 0 .264-.133.533-.294.574-.342.839-.375 1.08-.133.323.322.157.662-.51 1.04-.223.128-.448.26-.499.293-.189.126 1.127 1.61 2.025 2.282.2.15.392.273.426.273s.175-.198.313-.44c.345-.608.473-.735.738-.735.272 0 .541.245.541.493 0 .095-.144.417-.32.715l-.318.542.433.197c.814.37 2.24.729 2.899.73h.18v-.656c0-.61.01-.667.16-.816a.49.49 0 0 1 .724 0c.149.149.16.206.16.826v.665l.408-.038c.848-.08 1.936-.372 2.804-.753l.307-.134-.323-.576c-.177-.316-.323-.642-.323-.725 0-.23.28-.47.546-.47.267 0 .424.162.787.81l.239.427.34-.243c.498-.355 1.431-1.27 1.844-1.809.197-.257.358-.484.358-.503s-.235-.172-.521-.339c-.286-.166-.568-.375-.626-.463a.506.506 0 0 1 .122-.655c.233-.164.495-.114 1.032.195.28.162.522.294.538.294.055 0 .49-1.1.625-1.58.107-.38.33-1.608.331-1.826 0-.023-.307-.053-.683-.065-.604-.02-.701-.04-.83-.168a.52.52 0 0 1-.145-.377q.001-.23.146-.377c.128-.128.225-.148.832-.167l.687-.023-.04-.304c-.1-.755-.25-1.44-.434-1.991-.166-.496-.398-1.048-.481-1.142-.01-.012-.252.113-.537.277-.305.176-.6.3-.717.3-.428 0-.67-.47-.412-.798.076-.097.357-.296.625-.445.268-.148.488-.285.488-.305s-.145-.233-.323-.473c-.372-.501-1.38-1.492-1.879-1.848l-.34-.242-.24.427c-.362.648-.519.81-.786.81-.266 0-.546-.241-.546-.47 0-.083.145-.408.321-.722.364-.648.393-.57-.32-.862-.599-.245-1.785-.543-2.375-.596l-.5-.045v.665c0 .619-.01.676-.16.825a.49.49 0 0 1-.724 0c-.148-.149-.16-.207-.16-.816v-.656l-.277.006a6 6 0 0 0-.773.095" clip-rule="evenodd"/><path fill="#1e84b5" fill-rule="evenodd" d="M14.388 1.71A14.63 14.63 0 0 0 4.99 5.981c-2.22 2.236-3.64 5.08-4.124 8.26-.155 1.023-.155 3.011.002 4.078.801 5.46 4.546 10.003 9.705 11.776 1.39.477 3.13.798 4.329.798.385 0 .466-.022.604-.16a.49.49 0 0 0 .01-.716c-.131-.13-.242-.157-.833-.196-1.577-.106-3.005-.414-4.305-.93-3.191-1.263-5.741-3.613-7.218-6.65-.884-1.82-1.301-3.489-1.38-5.518-.166-4.29 1.817-8.548 5.192-11.153 4.157-3.207 9.62-3.774 14.343-1.486 1.366.662 2.614 1.577 3.757 2.755 1.066 1.099 1.743 2.054 2.415 3.407.95 1.914 1.387 3.807 1.388 6.02.002 2.193-.409 3.983-1.36 5.942-.374.768-1.304 2.285-1.402 2.285-.019 0 .003-.46.048-1.02.066-.817.066-1.056.001-1.192-.211-.442-.827-.376-.955.101-.071.265-.27 2.688-.268 3.274 0 .588.293.928.797.926.118 0 .95-.19 1.848-.422 1.392-.359 1.654-.446 1.78-.59.08-.094.146-.238.146-.32 0-.196-.217-.47-.41-.519-.085-.021-.578.075-1.124.22-.535.14-.983.246-.996.234-.012-.012.141-.25.34-.529 1.288-1.794 2.183-4.108 2.527-6.53.124-.87.106-2.968-.033-3.91-.314-2.123-1.137-4.266-2.311-6.017-2.936-4.378-7.882-6.826-13.115-6.49" clip-rule="evenodd"/><path fill="#0e384c" d="m14.59 10.357.144-.144c.09-.09.21-.144.325-.144.114 0 .234.053.325.144l.143.144v2.613c0 2.305.012 2.635.096 2.8.053.104.515.902 1.026 1.775.651 1.112.93 1.64.93 1.766 0 .23-.157.417-.389.461-.149.029-.216.004-.36-.131-.184-.176-2.033-3.3-2.16-3.654-.056-.154-.076-.88-.078-2.917z"/></g><defs><clipPath id="a"><path fill="#fff" d="M0 .929h30v30H0z"/></clipPath></defs></svg>
